Origami/64x64/apps/skype.svg

<svg xmlns="http://www.w3.org/2000/svg" width="64" height="64" version="1">
 <path style="opacity:0.2" d="m 4.0545998,19.07444 c -0.0266,0.367997 -0.0546,0.737994 -0.0546,1.113992 0,2.390383 0.5777159,4.695966 1.5624888,6.718752 0.076873,-0.494777 0.1357611,-0.995193 0.2382783,-1.48437 C 4.7885746,23.532828 4.1867789,21.346844 4.0545798,19.07506 Z M 58.722209,31.992347 c -0.05782,1.559369 -0.218359,3.088378 -0.531236,4.574168 0.08814,0.164039 0.152099,0.343757 0.234378,0.511716 0.204879,-1.33179 0.347658,-2.682581 0.347658,-4.074171 0,-0.341677 -0.03806,-0.673115 -0.05078,-1.011713 z m -53.4576178,0.02734 c -0.01226,0.326998 -0.050782,0.645176 -0.050782,0.976553 0,14.784495 11.9927148,26.777809 26.7998088,26.777809 1.911326,0 3.760973,-0.202879 5.56236,-0.582036 C 39.723963,60.352005 42.201945,61 44.807926,61 c 8.39994,0 15.191892,-6.797951 15.191892,-15.187891 0,-0.299998 -0.038,-0.591996 -0.054,-0.889994 -0.569996,7.869944 -7.111949,14.077899 -15.137892,14.077899 -2.607381,0 -5.084163,-0.647435 -7.230348,-1.808587 -1.801427,0.379158 -3.651174,0.582036 -5.56236,0.582036 -14.461497,0 -26.2058127,-11.447518 -26.7498088,-25.753816 z"/>
 <path style="fill:#2d9cf2" d="M -22.069,35.9188"/>
 <path style="fill:#2d9cf2" d="m 19.191492,4.0005547 c -8.39954,0 -15.1914918,6.7987513 -15.1914918,15.1874913 0,2.591582 0.6572153,5.099164 1.8014271,7.236148 -0.3792573,1.809567 -0.5882758,3.651374 -0.5882758,5.570961 0,14.784494 11.9937145,26.777808 26.8018085,26.777808 1.911326,0 3.762373,-0.202498 5.56376,-0.581636 2.145985,1.159992 4.621967,1.807987 7.227948,1.807987 8.39994,0 15.191892,-6.797951 15.191892,-15.187891 0,-2.608781 -0.657215,-5.099164 -1.810047,-7.244748 0.379237,-1.800947 0.581796,-3.651374 0.581796,-5.562361 0,-14.775894 -11.993715,-26.7778081 -26.783809,-26.7778081 -1.919946,0 -3.770973,0.1938826 -5.57236,0.5816559 C 24.276555,4.66425 21.768373,3.9985947 19.175992,3.9985947"/>
 <path style="opacity:0.2" d="m 32.505796,17.000655 c 7.894144,0 11.968115,4.17037 11.968115,6.617952 0,2.455783 -1.175072,2.82318 -3.112578,2.82318 -3.765173,0 -2.223984,-4.537767 -9.276534,-4.537767 -2.333783,0 -5.249162,1.067612 -5.249162,3.794772 0,2.192385 2.581981,2.998779 7.139749,4.123571 6.869951,1.839987 12.023914,3.675974 12.023914,9.983929 0,6.123956 -4.985964,9.193934 -12.881908,9.193934 -7.894144,0 -12.935907,-4.721566 -12.935907,-7.169149 0,-2.447582 0.929073,-3.061978 2.866579,-3.061978 3.771173,0 3.262977,5.150163 10.315326,5.150163 2.341984,0 5.798159,-1.067612 5.798159,-3.802973 0,-2.184184 -0.182979,-2.941579 -5.186163,-4.290769 -5.343962,-0.725995 -13.9759,-2.463982 -13.9759,-9.131935 0,-6.123756 4.621967,-9.68773 12.51591,-9.68773"/>
 <path style="fill:#ffffff" d="m 32.505796,16.000469 c 7.894144,0 11.968115,4.17037 11.968115,6.617953 0,2.455782 -1.175072,2.823179 -3.112578,2.823179 -3.765173,0 -2.223984,-4.537767 -9.276534,-4.537767 -2.333783,0 -5.249162,1.067612 -5.249162,3.794773 0,2.192384 2.581981,2.998778 7.139749,4.12357 6.869951,1.839987 12.023914,3.675974 12.023914,9.983929 0,6.123956 -4.985964,9.193934 -12.881908,9.193934 -7.894144,0 -12.935907,-4.721566 -12.935907,-7.169149 0,-2.447582 0.929073,-3.061978 2.866579,-3.061978 3.771173,0 3.262977,5.150163 10.315326,5.150163 2.341984,0 5.798159,-1.067612 5.798159,-3.802972 0,-2.184185 -0.182979,-2.941579 -5.186163,-4.29077 -5.343962,-0.725995 -13.9759,-2.463982 -13.9759,-9.131934 0,-6.123757 4.621967,-9.687731 12.51591,-9.687731"/>
 <path style="fill:#ffffff;opacity:0.2" d="M 19.175781 3.9980469 L 19.191406 4 C 10.791866 4 4 10.79876 4 19.1875 C 4 19.391925 4.0114363 19.595589 4.0195312 19.798828 C 4.2284917 11.592465 10.923932 5.0019531 19.191406 5.0019531 L 19.175781 5 C 21.768162 5 24.276478 5.664682 26.414062 6.8085938 C 28.21545 6.4208205 30.066382 6.2265625 31.986328 6.2265625 C 46.601387 6.2265625 58.478563 17.949507 58.757812 32.484375 C 58.760688 32.323803 58.769531 32.165335 58.769531 32.003906 C 58.769531 17.228012 46.776422 5.2265625 31.986328 5.2265625 C 30.066382 5.2265625 28.21545 5.4208205 26.414062 5.8085938 C 24.276478 4.664682 21.768162 3.9980469 19.175781 3.9980469 z M 5.6660156 27.152344 C 5.3773197 28.728644 5.2128906 30.332609 5.2128906 31.996094 C 5.2128906 32.169763 5.2232675 32.340788 5.2265625 32.513672 C 5.2586794 30.768213 5.4536058 29.082275 5.8007812 27.425781 C 5.7530143 27.336569 5.7120727 27.242826 5.6660156 27.152344 z M 58.324219 37.835938 C 58.279708 38.079713 58.240405 38.324444 58.189453 38.566406 C 59.249396 40.53911 59.882104 42.805862 59.978516 45.185547 C 59.981586 45.059795 59.998047 44.93704 59.998047 44.810547 C 59.998047 42.309014 59.390321 39.920133 58.324219 37.835938 z"/>
</svg>

<svg width="64" height="64" version="1" xmlns="http://www.w3.org/2000/svg">
 <path d="m4.0545998 19.07444c-0.0266 0.367997-0.0546 0.737994-0.0546 1.113992 0 2.390383 0.5777159 4.695966 1.5624888 6.718752 0.076873-0.494777 0.1357611-0.995193 0.2382783-1.48437-1.0121923-1.889986-1.613988-4.07597-1.7461871-6.347754zm54.667609 12.917907c-0.05782 1.559369-0.218359 3.088378-0.531236 4.574168 0.08814 0.164039 0.152099 0.343757 0.234378 0.511716 0.204879-1.33179 0.347658-2.682581 0.347658-4.074171 0-0.341677-0.03806-0.673115-0.05078-1.011713zm-53.457618 0.02734c-0.01226 0.326998-0.050782 0.645176-0.050782 0.976553 0 14.784495 11.992715 26.777809 26.799809 26.777809 1.911326 0 3.760973-0.202879 5.56236-0.582036 2.147985 1.159992 4.625967 1.807987 7.231948 1.807987 8.39994 0 15.191892-6.797951 15.191892-15.187891 0-0.299998-0.038-0.591996-0.054-0.889994-0.569996 7.869944-7.111949 14.077899-15.137892 14.077899-2.607381 0-5.084163-0.647435-7.230348-1.808587-1.801427 0.379158-3.651174 0.582036-5.56236 0.582036-14.461497 0-26.205813-11.447518-26.749809-25.753816z" style="opacity:.2"/>
 <path d="m-22.069 35.9188" style="fill:#2d9cf2"/>
 <path d="m19.191492 4.0005547c-8.39954 0-15.191492 6.7987513-15.191492 15.187491 0 2.591582 0.6572153 5.099164 1.8014271 7.236148-0.3792573 1.809567-0.5882758 3.651374-0.5882758 5.570961 0 14.784494 11.993714 26.777808 26.801808 26.777808 1.911326 0 3.762373-0.202498 5.56376-0.581636 2.145985 1.159992 4.621967 1.807987 7.227948 1.807987 8.39994 0 15.191892-6.797951 15.191892-15.187891 0-2.608781-0.657215-5.099164-1.810047-7.244748 0.379237-1.800947 0.581796-3.651374 0.581796-5.562361 0-14.775894-11.993715-26.777808-26.783809-26.777808-1.919946 0-3.770973 0.1938826-5.57236 0.5816559-2.137585-1.1439118-4.645767-1.8095671-7.238148-1.8095671" style="fill:#2d9cf2"/>
 <path d="m32.505796 17.000655c7.894144 0 11.968115 4.17037 11.968115 6.617952 0 2.455783-1.175072 2.82318-3.112578 2.82318-3.765173 0-2.223984-4.537767-9.276534-4.537767-2.333783 0-5.249162 1.067612-5.249162 3.794772 0 2.192385 2.581981 2.998779 7.139749 4.123571 6.869951 1.839987 12.023914 3.675974 12.023914 9.983929 0 6.123956-4.985964 9.193934-12.881908 9.193934-7.894144 0-12.935907-4.721566-12.935907-7.169149 0-2.447582 0.929073-3.061978 2.866579-3.061978 3.771173 0 3.262977 5.150163 10.315326 5.150163 2.341984 0 5.798159-1.067612 5.798159-3.802973 0-2.184184-0.182979-2.941579-5.186163-4.290769-5.343962-0.725995-13.9759-2.463982-13.9759-9.131935 0-6.123756 4.621967-9.68773 12.51591-9.68773" style="opacity:.2"/>
 <path d="m32.505796 16.000469c7.894144 0 11.968115 4.17037 11.968115 6.617953 0 2.455782-1.175072 2.823179-3.112578 2.823179-3.765173 0-2.223984-4.537767-9.276534-4.537767-2.333783 0-5.249162 1.067612-5.249162 3.794773 0 2.192384 2.581981 2.998778 7.139749 4.12357 6.869951 1.839987 12.023914 3.675974 12.023914 9.983929 0 6.123956-4.985964 9.193934-12.881908 9.193934-7.894144 0-12.935907-4.721566-12.935907-7.169149 0-2.447582 0.929073-3.061978 2.866579-3.061978 3.771173 0 3.262977 5.150163 10.315326 5.150163 2.341984 0 5.798159-1.067612 5.798159-3.802972 0-2.184185-0.182979-2.941579-5.186163-4.29077-5.343962-0.725995-13.9759-2.463982-13.9759-9.131934 0-6.123757 4.621967-9.687731 12.51591-9.687731" style="fill:#ffffff"/>
 <path d="m19.175781 3.9980469l0.015625 0.0019531c-8.39954 0-15.191406 6.79876-15.191406 15.1875 0 0.204425 0.0114363 0.408089 0.0195312 0.611328 0.2089605-8.206363 6.9044008-14.796875 15.171875-14.796875l-0.015625-0.0019531c2.592381 0 5.100697 0.664682 7.238281 1.8085938 1.801388-0.3877733 3.65232-0.5820313 5.572266-0.5820313 14.615059 0 26.492235 11.722944 26.771484 26.257812 0.002876-0.160572 0.011719-0.31904 0.011719-0.480469 0-14.775894-11.993109-26.777344-26.783203-26.777344-1.919946 0-3.770878 0.194258-5.572266 0.5820313-2.137584-1.1439118-4.6459-1.8105469-7.238281-1.8105469zm-13.509765 23.154297c-0.2886959 1.5763-0.453125 3.180265-0.453125 4.84375 0 0.173669 0.0103769 0.344694 0.0136719 0.517578 0.0321169-1.745459 0.2270433-3.431397 0.5742187-5.087891-0.0477669-0.089212-0.0887085-0.182955-0.1347656-0.273437zm52.658203 10.683594c-0.044511 0.243775-0.083814 0.488506-0.134766 0.730468 1.059943 1.972704 1.692651 4.239456 1.789063 6.619141 0.00307-0.125752 0.019531-0.248507 0.019531-0.375 0-2.501533-0.607726-4.890414-1.673828-6.974609z" style="fill:#ffffff;opacity:.2"/>
</svg>
